icons/fall.svg

<svg width="24" height="24" viewBox="0 0 24 24" fill="none" xmlns="http://www.w3.org/2000/svg">
<path d="M11 21L12 16L11 12L8 8H12L15 5" stroke="white" stroke-width="2" stroke-linecap="round" stroke-linejoin="round"/>
<path d="M6 16L5 12L8 8" stroke="white" stroke-width="2" stroke-linecap="round" stroke-linejoin="round"/>
<path d="M6 6C6.26522 6 6.51957 5.89464 6.70711 5.70711C6.89464 5.51957 7 5.26522 7 5C7 4.73478 6.89464 4.48043 6.70711 4.29289C6.51957 4.10536 6.26522 4 6 4C5.73478 4 5.48043 4.10536 5.29289 4.29289C5.10536 4.48043 5 4.73478 5 5C5 5.26522 5.10536 5.51957 5.29289 5.70711C5.48043 5.89464 5.73478 6 6 6Z" stroke="white" stroke-width="2" stroke-linecap="round" stroke-linejoin="round"/>
<path d="M13.5 12H16L20 14" stroke="white" stroke-width="2" stroke-linecap="round" stroke-linejoin="round"/>
</svg>

<svg
  width="24"
  height="24"
  viewBox="0 0 24 24"
  xmlns="http://www.w3.org/2000/svg"
  fill="none"
  stroke="currentColor"
  stroke-width="2"
  stroke-linecap="round"
  stroke-linejoin="round"
>
  <path d="M11 21l1-5-1-4-3-4h4l3-3" />
  <path d="M6 16l-1-4 3-4" />
  <path d="M6 6a1 1 0 1 0 0-2 1 1 0 0 0 0 2z" />
  <path d="M13.5 12H16l4 2" />
</svg>
